symbols/web/3k_plus/materialsymbolsrounded/3k_plus_grad200fill1_48px.svg

<svg xmlns="http://www.w3.org/2000/svg" height="48" width="48"><path d="M34.7 28q.4 0 .7-.3.3-.3.3-.7v-2h1.95q.4 0 .725-.3.325-.3.325-.7 0-.4-.3-.7-.3-.3-.7-.3h-2v-2q0-.4-.3-.7-.3-.3-.7-.3-.45 0-.725.3-.275.3-.275.7v2h-2q-.45 0-.75.3t-.3.7q0 .4.3.7.3.3.75.3h2v1.95q0 .45.275.75t.725.3Zm-10.1 2.05q.55 0 .9-.35t.35-.9v-3.3l3.9 4.2q.2.2.4.275.2.075.45.075.8 0 1.125-.725Q32.05 28.6 31.5 28l-3.75-4 3.75-4.05q.5-.6.2-1.3-.3-.7-1.1-.7-.25 0-.475.1-.225.1-.375.25l-3.9 4.2v-3.35q0-.5-.35-.85t-.9-.35q-.55 0-.9.35t-.35.9v9.65q0 .5.35.85t.9.35Zm-12 0h5.65q.7 0 1.175-.475.475-.475.475-1.175v-8.75q0-.75-.475-1.225-.475-.475-1.175-.475h-5.7q-.5 0-.85.35t-.35.9q0 .55.35.875.35.325.9.325h4.75v2.8h-3.2q-.35 0-.575.225-.225.225-.225.575 0 .4.225.625.225.225.625.225h3.15v2.7h-4.8q-.5 0-.85.375t-.35.875q0 .55.35.9t.9.35ZM9 42.65q-1.45 0-2.55-1.1-1.1-1.1-1.1-2.55V9q0-1.4 1.1-2.525T9 5.35h30q1.4 0 2.525 1.125T42.65 9v30q0 1.45-1.125 2.55-1.125 1.1-2.525 1.1Z"/></svg>

<svg xmlns="http://www.w3.org/2000/svg" height="48" width="48"><path d="M34.7 28Q35.1 28 35.4 27.7Q35.7 27.4 35.7 27V25H37.65Q38.05 25 38.375 24.7Q38.7 24.4 38.7 24Q38.7 23.6 38.4 23.3Q38.1 23 37.7 23H35.7V21Q35.7 20.6 35.4 20.3Q35.1 20 34.7 20Q34.25 20 33.975 20.3Q33.7 20.6 33.7 21V23H31.7Q31.25 23 30.95 23.3Q30.65 23.6 30.65 24Q30.65 24.4 30.95 24.7Q31.25 25 31.7 25H33.7V26.95Q33.7 27.4 33.975 27.7Q34.25 28 34.7 28ZM24.6 30.05Q25.15 30.05 25.5 29.7Q25.85 29.35 25.85 28.8V25.5L29.75 29.7Q29.95 29.9 30.15 29.975Q30.35 30.05 30.6 30.05Q31.4 30.05 31.725 29.325Q32.05 28.6 31.5 28L27.75 24L31.5 19.95Q32 19.35 31.7 18.65Q31.4 17.95 30.6 17.95Q30.35 17.95 30.125 18.05Q29.9 18.15 29.75 18.3L25.85 22.5V19.15Q25.85 18.65 25.5 18.3Q25.15 17.95 24.6 17.95Q24.05 17.95 23.7 18.3Q23.35 18.65 23.35 19.2V28.85Q23.35 29.35 23.7 29.7Q24.05 30.05 24.6 30.05ZM12.6 30.05H18.25Q18.95 30.05 19.425 29.575Q19.9 29.1 19.9 28.4V19.65Q19.9 18.9 19.425 18.425Q18.95 17.95 18.25 17.95H12.55Q12.05 17.95 11.7 18.3Q11.35 18.65 11.35 19.2Q11.35 19.75 11.7 20.075Q12.05 20.4 12.6 20.4H17.35V23.2H14.15Q13.8 23.2 13.575 23.425Q13.35 23.65 13.35 24Q13.35 24.4 13.575 24.625Q13.8 24.85 14.2 24.85H17.35V27.55H12.55Q12.05 27.55 11.7 27.925Q11.35 28.3 11.35 28.8Q11.35 29.35 11.7 29.7Q12.05 30.05 12.6 30.05ZM9 42.65Q7.55 42.65 6.45 41.55Q5.35 40.45 5.35 39V9Q5.35 7.6 6.45 6.475Q7.55 5.35 9 5.35H39Q40.4 5.35 41.525 6.475Q42.65 7.6 42.65 9V39Q42.65 40.45 41.525 41.55Q40.4 42.65 39 42.65Z"/></svg>
